img/profile/off.svg

<svg width="20" height="20" viewBox="0 0 20 20" fill="none" xmlns="http://www.w3.org/2000/svg">
<path d="M7.70213 6.64124C7.40924 6.34835 6.93437 6.34835 6.64147 6.64124C6.34858 6.93414 6.34858 7.40901 6.64147 7.7019L7.70213 6.64124ZM12.2983 13.3588C12.5912 13.6517 13.0661 13.6516 13.359 13.3588C13.6519 13.0659 13.6519 12.591 13.359 12.2981L12.2983 13.3588ZM13.359 7.7019C13.6519 7.40901 13.6519 6.93414 13.359 6.64124C13.0661 6.34835 12.5912 6.34835 12.2983 6.64124L13.359 7.7019ZM6.64147 12.2981C6.34858 12.591 6.34858 13.0659 6.64147 13.3588C6.93437 13.6516 7.40924 13.6517 7.70213 13.3588L6.64147 12.2981ZM15.1268 4.87348C17.9581 7.70478 17.9581 12.2952 15.1268 15.1265L16.1874 16.1872C19.6045 12.7701 19.6045 7.2299 16.1874 3.81282L15.1268 4.87348ZM15.1268 15.1265C12.2955 17.9578 7.70501 17.9578 4.87371 15.1265L3.81305 16.1872C7.23013 19.6043 12.7703 19.6043 16.1874 16.1872L15.1268 15.1265ZM4.87371 15.1265C2.04241 12.2952 2.04241 7.70478 4.87371 4.87348L3.81305 3.81282C0.39596 7.2299 0.39596 12.7701 3.81305 16.1872L4.87371 15.1265ZM4.87371 4.87348C7.70501 2.04218 12.2955 2.04218 15.1268 4.87348L16.1874 3.81282C12.7703 0.395729 7.23013 0.395729 3.81305 3.81282L4.87371 4.87348ZM6.64147 7.7019L9.4699 10.5303L10.5306 9.46967L7.70213 6.64124L6.64147 7.7019ZM9.4699 10.5303L12.2983 13.3588L13.359 12.2981L10.5306 9.46967L9.4699 10.5303ZM12.2983 6.64124L9.4699 9.46967L10.5306 10.5303L13.359 7.7019L12.2983 6.64124ZM9.4699 9.46967L6.64147 12.2981L7.70213 13.3588L10.5306 10.5303L9.4699 9.46967Z" fill="#87909F"/>
</svg>

<svg width="20" height="20" viewBox="0 0 20 20" fill="none" xmlns="http://www.w3.org/2000/svg"><path d="M7.702 6.641a.75.75 0 00-1.06 1.06l1.06-1.06zm4.596 6.718a.75.75 0 001.061-1.06l-1.06 1.06zm1.061-5.657a.75.75 0 10-1.06-1.06l1.06 1.06zm-6.718 4.596a.75.75 0 001.061 1.06l-1.06-1.06zm8.486-7.425a7.25 7.25 0 010 10.253l1.06 1.061a8.75 8.75 0 000-12.374l-1.06 1.06zm0 10.253a7.25 7.25 0 01-10.253 0l-1.06 1.061a8.75 8.75 0 0012.373 0l-1.06-1.06zm-10.253 0a7.25 7.25 0 010-10.253l-1.06-1.06a8.75 8.75 0 00-.001 12.374l1.06-1.06zm0-10.253a7.25 7.25 0 0110.253 0l1.06-1.06a8.75 8.75 0 00-12.374 0l1.06 1.06zM6.64 7.702l2.83 2.828 1.06-1.06-2.827-2.83-1.06 1.06zm2.83 2.828l2.828 2.829 1.061-1.06-2.828-2.83L9.47 10.53zm2.828-3.889L9.47 9.47l1.06 1.06 2.829-2.828-1.06-1.06zM9.47 9.47l-2.83 2.828 1.061 1.06 2.829-2.828-1.06-1.06z" fill="#87909F"/></svg>
